X:1
T:Marsch efter Berg
O:Älvdalen, Dalarna
R:Marsch
M:2/4
L:1/8
K:D
|:"D"(A/>B/)A/F/ D{/D}D|(A/B/)A/G/ (F/G/)A/=c/|"G"((3B/c/B/)A/G/ "D"((3F/G/F/)D/F/|"A"((3E/F/E/)D/C/ "D"((3E/F/E/D)|!BArmdtd!D2 z2:|
|:"D"(A/B/)A/G/ Ac|"G"d(d/e/) dc/A/|"A"cc/d/ ((3B/c/B/)A/G/|"D"AA/F/ DD/F/|"A"((3E/F/E/)D/C/ "D"ED|D2 z2:|

